img/icons/telegram.svg

<svg width="16" height="15" viewBox="0 0 16 15" fill="none" xmlns="http://www.w3.org/2000/svg">
<path d="M15.4002 1.08188L12.9959 13.6339C12.9959 13.6339 12.6594 14.5042 11.7353 14.0868L6.18786 9.68216L6.16213 9.66918C6.91147 8.97241 12.7221 3.56223 12.9761 3.31699C13.3692 2.93719 13.1251 2.71108 12.6687 2.99798L4.08563 8.64247L0.774306 7.48871C0.774306 7.48871 0.253201 7.29676 0.20307 6.87938C0.152278 6.46132 0.791456 6.23521 0.791456 6.23521L14.2907 0.751256C14.2907 0.751256 15.4002 0.246442 15.4002 1.08188Z" fill="#273C8D"/>
</svg>

<svg width="16" height="15" fill="none" xmlns="http://www.w3.org/2000/svg"><path d="M15.4 1.082l-2.404 12.552s-.337.87-1.26.453L6.187 9.682l-.026-.013c.75-.697 6.56-6.107 6.814-6.352.393-.38.15-.606-.307-.319L4.086 8.642.774 7.49s-.52-.192-.57-.61c-.052-.418.587-.644.587-.644l13.5-5.484s1.11-.505 1.11.33z" fill="#273C8D"/></svg>
